Numix-GalliumOS/64/actions/stock_mail-unread-multiple.svg

<?xml version="1.0" encoding="UTF-8" standalone="no"?>
<svg
   xmlns:dc="http://purl.org/dc/elements/1.1/"
   xmlns:cc="http://creativecommons.org/ns#"
   xmlns:rdf="http://www.w3.org/1999/02/22-rdf-syntax-ns#"
   xmlns:svg="http://www.w3.org/2000/svg"
   xmlns="http://www.w3.org/2000/svg"
   xmlns:sodipodi="http://sodipodi.sourceforge.net/DTD/sodipodi-0.dtd"
   xmlns:inkscape="http://www.inkscape.org/namespaces/inkscape"
   width="64"
   height="64"
   viewBox="0 0 64 64"
   id="svg2"
   version="1.1"
   inkscape:version="0.91 r"
   sodipodi:docname="stock_mail-unread-multiple.svg">
  <metadata
     id="metadata18">
    <rdf:RDF>
      <cc:Work
         rdf:about="">
        <dc:format>image/svg+xml</dc:format>
        <dc:type
           rdf:resource="http://purl.org/dc/dcmitype/StillImage" />
        <dc:title />
      </cc:Work>
    </rdf:RDF>
  </metadata>
  <defs
     id="defs16" />
  <sodipodi:namedview
     pagecolor="#ffffff"
     bordercolor="#666666"
     borderopacity="1"
     objecttolerance="10"
     gridtolerance="10"
     guidetolerance="10"
     inkscape:pageopacity="0"
     inkscape:pageshadow="2"
     inkscape:window-width="1920"
     inkscape:window-height="1056"
     id="namedview14"
     showgrid="false"
     inkscape:zoom="7.375"
     inkscape:cx="-21.084746"
     inkscape:cy="16"
     inkscape:window-x="0"
     inkscape:window-y="24"
     inkscape:window-maximized="1"
     inkscape:current-layer="svg2" />
  <path
     style="fill:#268bd2"
     d="M 3.0000002,0 C 0,0 0,0 0,3.000002 L 0,32.999998 C 0,36 0,36 3.0000002,36 L 45,36 c 3.000002,0 3.000002,0 3.000002,-3.000002 0,-9.656248 0,-24.421872 0,-29.999996 C 48.000002,0 48.000002,0 45,0 Z"
     id="path4-4"
     inkscape:connector-curvature="0" />
  <g
     style="fill-opacity:0.10199998"
     id="g6-9"
     transform="matrix(1.5,0,0,1.5,0,-12)">
    <path
       style="fill:#ffffff"
       d="M 0.875,8.015625 C 0.03125,8.109375 0,8.511719 0,10.011719 L 16,20 32,10.011719 C 32,8.015625 32,8.015625 30,8.015625 l -28,0 c -0.5,0 -0.84375,-0.03125 -1.125,0 z"
       id="path8-6"
       inkscape:connector-curvature="0" />
    <path
       style="fill:#000000"
       d="M 32,10 16,20 32,30 Z"
       id="path10-9"
       inkscape:connector-curvature="0" />
  </g>
  <path
     style="fill:#268bd2"
     d="m 18.999998,28 c -3,0 -3,0 -3,3.000002 l 0,29.999996 c 0,3.000002 0,3.000002 3,3.000002 l 42,0 C 64,64 64,64 64,60.999998 64,51.34375 64,36.578126 64,31.000002 64,28 64,28 60.999998,28 Z"
     id="path4"
     inkscape:connector-curvature="0" />
  <g
     style="fill-opacity:0.10199998"
     id="g6"
     transform="matrix(1.5,0,0,1.5,15.999998,16)">
    <path
       style="fill:#ffffff"
       d="M 0.875,8.015625 C 0.03125,8.109375 0,8.511719 0,10.011719 L 16,20 32,10.011719 C 32,8.015625 32,8.015625 30,8.015625 l -28,0 c -0.5,0 -0.84375,-0.03125 -1.125,0 z"
       id="path8"
       inkscape:connector-curvature="0" />
    <path
       style="fill:#000000"
       d="M 32,10 16,20 32,30 Z"
       id="path10"
       inkscape:connector-curvature="0" />
  </g>
  <path
     style="fill:#cb4b16;fill-opacity:1;fill-rule:evenodd"
     d="M 56.90625,18.078124 C 59.898438,31 59.085938,29.398438 47.960938,23.945312 c -11.6875,5.9375 -11.28125,6.4375 -8.875,-5.992188 -10.507814,-8.75 -9.304688,-7.960936 3.460938,-9.570312 5.75,-11.59375 5.265624,-10.773436 11.015624,0.07032 13.46875,1.5 13.148438,0.984376 3.34375,9.625 z"
     id="path12"
     inkscape:connector-curvature="0" />
</svg>

<svg xmlns="http://www.w3.org/2000/svg" viewBox="0 0 64 64">
 <path d="m 3 0 c -3 0 -3 0 -3 3 l 0 30 c 0 3 0 3 3 3 l 42 0 c 3 0 3 0 3 -3 0 -9.656 0 -24.422 0 -30 c 0 -3 0 -3 -3 -3" style="fill:#268bd2"/>
 <g transform="matrix(1.5,0,0,1.5,0,-12)" style="fill-opacity:0.102">
  <path d="m 0.875 8.02 c -0.844 0.094 -0.875 0.496 -0.875 1.996 l 16 9.988 16 -9.988 c 0 -1.996 0 -1.996 -2 -1.996 l -28 0 c -0.5 0 -0.844 -0.031 -1.125 0 z" style="fill:#fff"/>
  <path d="m 32 10 -16 10 16 10" style="fill:#000"/>
 </g>
 <path d="m 19 28 c -3 0 -3 0 -3 3 l 0 30 c 0 3 0 3 3 3 l 42 0 c 3 0 3 0 3 -3 0 -9.656 0 -24.422 0 -30 0 -3 0 -3 -3 -3" style="fill:#268bd2"/>
 <g transform="matrix(1.5,0,0,1.5,15.999998,16)" style="fill-opacity:0.102">
  <path d="m 0.875 8.02 c -0.844 0.094 -0.875 0.496 -0.875 1.996 l 16 9.988 16 -9.988 c 0 -1.996 0 -1.996 -2 -1.996 l -28 0 c -0.5 0 -0.844 -0.031 -1.125 0 z" style="fill:#fff"/>
  <path d="m 32 10 -16 10 16 10" style="fill:#000"/>
 </g>
 <path d="m 56.906 18.08 c 2.992 12.922 2.18 11.32 -8.945 5.867 c -11.688 5.938 -11.281 6.438 -8.875 -5.992 -10.508 -8.75 -9.305 -7.961 3.461 -9.57 5.75 -11.594 5.266 -10.773 11.02 0.07 13.469 1.5 13.148 0.984 3.344 9.625 z" style="fill:#cb4b16;fill-opacity:1;fill-rule:evenodd"/>
</svg>
